X:1
T:Title
%%score { ( 1 3 ) | ( 2 4 ) }
L:1/8
M:4/4
K:F
V:1 treble nm="Grand Piano"
V:3 treble 
V:2 bass 
V:4 bass 
V:1
 z4 z2[Q:1/4=106] A2 | A3 F GE F>G | A6 A2 | B3 B A2 _A2 |[M:3/4] [CA]6 |[M:1/4] A2 | %6
[M:4/4] A3 F GE F>G | A6 A2 | [DG]3 [DG] F2 E2 |[M:3/4] F6 |[M:1/4] c2 |[M:4/4] c3 A B2 d2 | %12
[M:3/4] c6 |[M:1/4] [CFA]2 |[M:4/4] [CEB]3 [CEG] [CFA]2 [A,CF]2 | [EG]6 z2 | %16
 [Fc]3 [FA] [EB][EG] A>B | c6 z2 | A3 G F2 E2 |[M:3/4] F6 |] %20
V:2
 z4 z2 [F,C]2 | [F,C]3 [F,A,C] [F,B,C][F,G,C] [F,A,C]>[F,B,C] | [F,C]6 [F,C]2 | %3
 [F,D]3 [F,D] [F,C]2 [F,=B,]2 |[M:3/4] [F,,F,]6 |[M:1/4] [F,C]2 | %6
[M:4/4] [F,C]3 [F,A,C] [F,B,C][F,G,C] [F,A,C]>[F,B,C] | [F,C]6 [F,C]2 | %8
 [B,,B,]3 [B,,B,] [C,A,C]2 [C,G,C]2 |[M:3/4] [F,A,C]6 |[M:1/4] [F,A,F]2 | %11
[M:4/4] [F,A,F]3 [F,CF] [F,DF]2 [F,B,F]2 |[M:3/4] F6 |[M:1/4] F,2 |[M:4/4] C,3 C, F,2 F,2 | %15
 C,2 C,C, C,2 [C,B,]2 | [F,A,]3 [F,C] [C,C][C,C][K:treble] [F,CF]>[G,CE] | F6 z2 | %18
 [CF]3[K:bass] [C,B,C] [C,A,C]2 [C,G,C]2 |[M:3/4] [A,C]2 z2 z2 |] %20
V:3
 x8 | x8 | x8 | x8 |[M:3/4] x6 |[M:1/4] x2 |[M:4/4] x8 | x8 | x8 |[M:3/4] x6 |[M:1/4] x2 | %11
[M:4/4] x8 |[M:3/4] z2 A,A, A,2 |[M:1/4] x2 |[M:4/4] x8 | C2 CC C2 [Ec]2 | x8 | z2 CC C2 B2 | x8 | %19
[M:3/4] z2 =B,D C2 |] %20
V:4
 x8 | x8 | x8 | x8 |[M:3/4] x6 |[M:1/4] x2 |[M:4/4] x8 | x8 | x8 |[M:3/4] x6 |[M:1/4] x2 | %11
[M:4/4] x8 |[M:3/4] [F,A,]2 F,F, F,2 |[M:1/4] x2 |[M:4/4] x8 | x8 | x6[K:treble] x2 | %17
 [A,C]2 A,A, A,2 [B,DF]2 | x3[K:bass] x5 |[M:3/4] F,2- [F,-_A,][F,-B,] [F,=A,]2 |] %20

